X:149
T:Callaghan's
R:reel
D:Kevin Crawford: In Good Company
Z:Transcribed by Dave Marshall
M:C|
K:D
| A~F3 FEDE | F2FE F2dB | A~F3 FEDE | FBBA F~E3 |
A~F3 FEDE | F2FE F2dB | A~F3 FEDE | F2EG FD D2 |
| A3B A~F3 | ABde fee2 | fedc ~B3d | ABdf fedB |
A3B A~F3 | ABde fee2 | fedc BcdB | ABdf fedB |
